X:0550
T:Innes's Jig.
M:6/8
L:1/8
Q:3/8=120
I: :: ::
Z:Jack Campin * www.campin.me.uk * 2009
K:G
D|GAG BAG|d2G e2g|edc BAG|EAA  A2
B|GAG BAG|d2G e2G|gfe dec|BGG  G2::
d|gdB GAG|DED GAG|edc BAG|EAA TA2
f|gdB GAG|ecA FED|gfe dec|BGG  G2:|

